sticker-plus.svg

<svg fill="currentColor" viewBox="0 0 24 24"><path d="M18.5 2h-13C3.6 2 2 3.6 2 5.5v13C2 20.4 3.6 22 5.5 22H16l6-6V5.5C22 3.6 20.4 2 18.5 2M13 16h-2v-3H8v-2h3V8h2v3h3v2h-3zm2 4v-1.5c0-1.9 1.6-3.5 3.5-3.5H20z"/></svg>

<svg  viewBox="0 0 24 24" fill="currentColor"><path  d="M18.5 2H5.5C3.6 2 2 3.6 2 5.5V18.5C2 20.4 3.6 22 5.5 22H16L22 16V5.5C22 3.6 20.4 2 18.5 2M13 16H11V13H8V11H11V8H13V11H16V13H13V16M15 20V18.5C15 16.6 16.6 15 18.5 15H20L15 20Z"/></svg>
